X:1
T:Amberley, CMD
T:Amberley, CMD
T:Charles Hubert Hastings Parry, 1904
T:Public Domain Courtesy of the Cyber Hymnal™
C:Charles Hubert Hastings Parry, 1904
Z:Public Domain
Z:Courtesy of the Cyber Hymnal™
%%score ( 1 2 ) ( 3 4 )
L:1/8
Q:1/4=110
M:4/4
K:Eb
V:1 treble 
V:2 treble 
V:3 bass 
V:4 bass 
V:1
 [B,E]2 | [B,F]2 [DG]2 [EA]2 [EG]2 | [Ec]3 [Ec] [DB]2 [DG]2 | [CE]2 [CD]2 [EA]2 [DA]2 | [EG]6 G2 | %5
 [G=A]2 [GB]2 [^Fc]2 [GB]2 | [Ge]2 z e [Bd]2 [Gc]2 | [Fc]2 [GB]2 [GB]2 =A2 | [DB]8 | %9
 [DF]2 [DG][FA] B3 z B | [EG]2 E2 [Ec]4 x2 | [Fc]2 [Ad][Ae] [Ff]2 [Fd]2 x2 | B8 | %13
 [EB]2 [Ee][Ed] [Ec]2 c2 | B3 z [EG]2 [DB]2 | EF [EG]2 A2 [DF]2 | E6 |] %17
V:2
 x2 | x8 | x8 | x8 | x8 | x8 | x2 =A2 x4 | x6 FE | x8 | x4 F2 E2 x | x10 | x10 | F2 E6 | x6 AG | %14
 F2 (D2 A) x3 | C2 x F E x3 | E6 |] %17
V:3
 [E,G,]2 | [D,F,]2 [B,,B,]2 [C,A,]2 [E,B,]2 | A,2 z [B,,F,]2 [B,,B,]2 x | %3
 [C,G,]2 [C,G,]2 [A,,C]2 [F,A,]2 | [E,B,]6 [E,B,]2 | [C,E]2 [B,,D]2 [=A,,C]2 [B,,D]2 | %6
 [C,C]2 [F,C]2 [G,B,]2 [E,C]2 | [D,D]2 [G,D]2 [E,C]2 [F,C]2 | [B,,B,]8 | %9
 [B,D]2 [B,D][A,C] B,2 z F, x | [E,B,]2 [G,B,]2 z2 x4 | [F,A,]2 [F,A,][E,C] B,4 [F,B,]2 | [G,B,]8 | %13
 [G,B,]2 [F,A,][G,B,] [A,C]2 A,2 | [D,B,]2 [B,,B,]2 [C,E,]2 [G,,B,]2 | %15
 [A,,A,]2 [G,,B,]2 [F,,C]2 (B,A,) | [E,G,]6 |] %17
V:4
 x2 | x8 | A,,3 (G,2 A,,) x2 | x8 | x8 | x8 | x8 | x8 | x8 | x4 G,3 B,2 | x4 (A,4 G,2) | %11
 x4 D,2 x4 | x8 | x6 F,E, | x8 | x6 B,,2 | x6 |] %17

